src/assets/arrow.svg

<svg width="35" height="17" viewBox="0 0 35 17" fill="none" xmlns="http://www.w3.org/2000/svg">
<path d="M35 8.34124L26.6587 16.6825L25.3222 15.3772L31.4206 9.27874L11.25 9.27874L11.25 7.40373L31.4328 7.40374L25.3534 1.30531L26.6587 -4.97999e-06L35 8.34124ZM8.75 9.27874L5 9.27874L5 7.40373L8.75 7.40373L8.75 9.27874ZM2.5 9.27874L-3.23629e-07 9.27874L-4.05587e-07 7.40374L2.5 7.40374L2.5 9.27874Z" fill="#927642"/>
</svg>

<svg xmlns="http://www.w3.org/2000/svg" width="35" height="17" fill="none" viewBox="0 0 35 17"><path fill="#927642" d="m35 8.341-8.341 8.342-1.337-1.306 6.099-6.098H11.25V7.404h20.183l-6.08-6.099L26.66 0zM8.75 9.28H5V7.404h3.75zm-6.25 0H0V7.404h2.5z"/></svg>
